logos/prisma.svg

<svg width="72" height="72" viewBox="0 0 159 195" fill="none" xmlns="http://www.w3.org/2000/svg">
<path fill-rule="evenodd" clip-rule="evenodd" d="M2.39749 123.367C0.476293 126.5 0.506027 130.455 2.47414 133.559L38.0964 189.752C40.4083 193.399 44.8647 195.062 49.0006 193.821L151.798 162.982C157.408 161.299 160.23 155.041 157.778 149.722L91.6953 6.37265C88.4726 -0.618156 78.7573 -1.19199 74.734 5.37082L2.39749 123.367ZM89.9395 39.1438C88.535 35.8938 83.7788 36.3944 83.0817 39.8656L57.64 166.544C57.1035 169.215 59.6044 171.496 62.215 170.717L133.24 149.515C135.313 148.897 136.381 146.607 135.522 144.621L89.9395 39.1438Z" fill="white"/>
</svg>

<svg xmlns="http://www.w3.org/2000/svg" width="72" height="72" fill="none" viewBox="0 0 159 195"><path fill="#fff" fill-rule="evenodd" d="M2.397 123.367a9.632 9.632 0 0 0 .077 10.192l35.622 56.193a9.633 9.633 0 0 0 10.905 4.069l102.797-30.839c5.61-1.683 8.432-7.941 5.98-13.26L91.695 6.372c-3.222-6.99-12.938-7.564-16.961-1.001L2.397 123.367ZM89.94 39.144c-1.404-3.25-6.16-2.75-6.857.722L57.64 166.544c-.537 2.671 1.964 4.952 4.575 4.173l71.025-21.202a3.61 3.61 0 0 0 2.282-4.894L89.94 39.144Z" clip-rule="evenodd"/></svg>
